dist/svg/static/youtube-small.svg

<svg xmlns="http://www.w3.org/2000/svg" width="24" height="24" viewBox="0 0 24 24"><path d="M18.86 9.053s-.137-.965-.556-1.39c-.533-.558-1.13-.56-1.403-.593-1.96-.142-4.898-.142-4.898-.142h-.006s-2.939 0-4.898.142c-.274.033-.87.035-1.403.593-.42.425-.556 1.39-.556 1.39S5 10.185 5 11.318v1.063c0 1.132.14 2.265.14 2.265s.137.965.556 1.39c.533.558 1.232.54 1.544.598 1.12.108 4.76.141 4.76.141s2.942-.004 4.9-.146c.275-.033.871-.036 1.404-.593.42-.425.556-1.39.556-1.39s.14-1.133.14-2.266v-1.062a21.2 21.2 0 0 0-.14-2.265zm-8.305 4.615l-.001-3.934 3.783 1.974-3.782 1.96z" fill="currentColor"/></svg>

<?xml version="1.0" encoding="UTF-8" standalone="no"?>
<svg width="24px" height="24px" viewBox="0 0 24 24" version="1.1" xmlns="http://www.w3.org/2000/svg" xmlns:xlink="http://www.w3.org/1999/xlink">
    <!-- Generator: sketchtool 46.2 (44496) - http://www.bohemiancoding.com/sketch -->
    <title>youtube-small</title>
    <desc>Created with sketchtool.</desc>
    <defs></defs>
    <g id="icons-published" stroke="none" stroke-width="1" fill="none" fill-rule="evenodd">
        <g id="briefing" transform="translate(-2084.000000, -2458.000000)"></g>
        <g id="youtube-small" fill-rule="nonzero" fill="#000000">
            <path d="M18.9,9.1 C18.9,9.1 18.8,8.1 18.3,7.7 C17.8,7.1 17.2,7.1 16.9,7.1 C14.9,7 12,7 12,7 L12,7 C12,7 9.1,7 7.1,7.1 C6.8,7.1 6.2,7.1 5.7,7.7 C5.3,8.1 5.1,9.1 5.1,9.1 C5.1,9.1 5,10.2 5,11.3 L5,12.4 C5,13.5 5.1,14.7 5.1,14.7 C5.1,14.7 5.2,15.7 5.7,16.1 C6.2,16.7 6.9,16.6 7.2,16.7 C8.3,16.8 12,16.8 12,16.8 C12,16.8 14.9,16.8 16.9,16.7 C17.2,16.7 17.8,16.7 18.3,16.1 C18.7,15.7 18.9,14.7 18.9,14.7 C18.9,14.7 19,13.6 19,12.4 L19,11.3 C19,10.6 18.9,9.8 18.9,9.1 Z M10.6,13.7 L10.6,9.8 L14.4,11.8 L10.6,13.7 Z" id="Shape"></path>
        </g>
    </g>
</svg>
